src/lib/packages/icons/src/assets/filled/folder-export.svg

<svg width="24" height="24" viewBox="0 0 24 24" fill="none" xmlns="http://www.w3.org/2000/svg">
<path d="M18 7H13L10 4H6C4 4 3 5 3 7V17C3 19 4 20 6 20H18C20 20 21 19 21 17V10C21 8 20 7 18 7ZM12.6919 14.287C12.6539 14.379 12.599 14.462 12.53 14.531L10.53 16.531C10.384 16.677 10.192 16.751 10 16.751C9.808 16.751 9.61597 16.678 9.46997 16.531C9.17697 16.238 9.17697 15.763 9.46997 15.47L10.1899 14.75H7C6.586 14.75 6.25 14.414 6.25 14C6.25 13.586 6.586 13.25 7 13.25H10.189L9.46899 12.53C9.17599 12.237 9.17599 11.762 9.46899 11.469C9.76199 11.176 10.237 11.176 10.53 11.469L12.53 13.469C12.599 13.538 12.6539 13.621 12.6919 13.713C12.7679 13.897 12.7679 14.103 12.6919 14.287Z" fill="currentColor"/>
</svg>

<svg xmlns="http://www.w3.org/2000/svg" width="24" height="24" fill="none"><path fill="currentColor" d="M18 7h-5l-3-3H6C4 4 3 5 3 7v10c0 2 1 3 3 3h12c2 0 3-1 3-3v-7c0-2-1-3-3-3Zm-5.308 7.287a.749.749 0 0 1-.162.244l-2 2a.748.748 0 0 1-1.06 0 .75.75 0 0 1 0-1.061l.72-.72H7a.75.75 0 0 1 0-1.5h3.189l-.72-.72a.75.75 0 1 1 1.061-1.061l2 2a.749.749 0 0 1 .162.818Z"/></svg>
